!!!!SEGMENT: pl-kk--kk-i-265--001_anonim--rorate-caeli.krn
!!!cenid: 17xx:2049
!!!COM: Anonim
!!!COM-rismID: pe30004985
!!!CDT:
!!!CNT:
!!!OTL: Rorate caeli
!!!PDT:
!!!AGN: Sacred
!!!SMS-siglum: PL-Kk
!!!SMS-shelfmark: Kk.I.265
!!!SMS-shelfwork: 001 W
!!!SMS-variant:
!!!SMS-altvar:
!!!NIFC-rismSourceID: 1001143725
!!!NIFC-islandoraID: pl-kk:4753
!!!URL-pdf-islandora: https://repozytorium.nifc.pl/islandora/object/pl-kk%3A4753/datastream/PDF/view
!!!URL-scan: https://polish.musicsources.pl/pl/lokalizacje/galeria/rekopisy/5885 @EN{Scan on Polish Music Sources Website} @PL{Skany w portalu Dziedzictwo Muzyki Polskiej w otwartym dostępie}
!!!ONB-nifc: UWAGA: utwory w zbiorze: 1. Rorate caeli (Alto, Basso), 2. Alleluia Ave Maria (B), 3. Surrexit Dominus (B)
!!!AIN: 1 alto 1 bass
!!!key:
**kern	**text	**text	**kern	**text
*part2	*part2	*part2	*part1	*part1
*staff2	*staff2	*staff2	*staff1	*staff1
*Ibass	*	*	*Ialto	*
*I"Basso	*	*	*I"Alto	*
*I'B	*	*	*I'A	*
*clefF4	*	*	*clefC3	*
*k[]	*	*	*k[]	*
*a:	*	*	*a:	*
*M2/1	*	*	*M2/1	*
*met(C|)	*	*	*met(C|)	*
=1	=1	=1	=1	=1
00r	.	.	1r	.
.	.	.	1e\	Ro-
=2	=2	=2	=2	=2
*	*	*	*2\right	*
!LO:TX:t=P:problem=kreska pseudotaktowa	!	!	!	!
.	.	.	2.f\	-ra-
!	!	!	!LO:TX:t=P:problem=kreska pseudotaktowa	!
.	.	.	4f\	-te
.	.	.	2d\	ro-
.	.	.	1g\	-ra-
=3	=3	=3	=3	=3
!LO:TX:t=P:problem=kreska pseudotaktowa	!	!	!	!
1E\	Ro-	.	.	.
!	!	!	!LO:TX:t=P:problem=kreska pseudotaktowa	!
.	.	.	2g\	-te
*2\right	*	*	*	*
2.F\	-ra-	.	2.a\	cae-
!LO:TX:t=P:problem=kreska pseudotaktowa	!	!	!	!
4F\	-te	.	4g\	.
=4	=4	=4	=4	=4
2D\	cae-	.	4f\	.
.	.	.	4e\	.
!LO:TX:t=P:problem=kreska pseudotaktowa	!	!	!	!
2D\	-li	.	1d\	.
*	*ij	*	*	*
2G\	cae-	.	.	.
!LO:TX:t=P:global:problem=oddech jako rozdzielacz słów, przeważnie na wysokości dźwięku poprzedzającego	!	!	!LO:TX:t=P:problem=kreska pseudotaktowa	!
4G\,	-li	.	2d\	-li
*	*Xij	*	*	*
!LO:TX:t=P:problem=kreska pseudotaktowa	!	!	!	!
4F\	ro-	.	.	.
=5	=5	=5	=5	=5
2E\	-ra-	.	2e\	ro-
!LO:TX:t=P:problem=kreska pseudotaktowa	!	!	!	!
2C/	-te	.	1e\	-ra-
!LO:TX:t=P:problem=kreska pseudotaktowa	!	!	!	!
1F\	cae-	.	.	.
.	.	.	2d\	-te
=6	=6	=6	=6	=6
!LO:TX:t=P:problem=kreska pseudotaktowa	!	!	!LO:TX:t=P:problem=kreska pseudotaktowa	!
1E\	-li	.	1e\	cae-
!	!	!	!LO:LB:g=original	!
2r	.	.	0e\	-li
!LO:TX:t=P:problem=kreska pseudotaktowa	!	!	!	!
2E\	ro-	.	.	.
!LO:LB:g=original	!	!	!	!
=7	=7	=7	=7	=7
!	!	!	!LO:TX:t=P:problem=kreska pseudotaktowa	!
2C/	-ra-	.	.	.
!LO:TX:t=P:problem=kreska pseudotaktowa	!	!	!	!
2AA/	-te	.	.	.
!LO:TX:t=P:problem=kreska pseudotaktowa	!	!	!	!
1E\	cae-	.	2r	.
*	*	*	*	*ij
.	.	.	2e\	ro-
=8	=8	=8	=8	=8
2AA/,	-li	.	2c/	-ra-
!	!	!	!LO:TX:t=P:problem=kreska pseudotaktowa	!
2.A\	de	.	2A/	-te
.	.	.	2e\	cae-
8G\L	su-	.	.	.
8F\J	.	.	.	.
!LO:TX:t=P:problem=kreska pseudotaktowa	!	!	!	!
!LO:TX:a:t=P:problem=# above	!	!	!	!
2G#X\	-per	.	2e\	-li
*	*	*	*	*Xij
=9	=9	=9	=9	=9
2A\	.	.	4c/	de
.	.	.	4d\	.
2E\,	.	.	4e\	.
!	!	!	!LO:TX:t=P:problem=kreska pseudotaktowa	!
.	.	.	4f\	.
2E\	et	.	2g\	su-
!LO:TX:t=P:problem=kreska pseudotaktowa	!	!	!	!
2G\	nu-	.	2g\	-per
=10	=10	=10	=10	=10
2F\	-bes	.	2r	.
!LO:TX:t=P:problem=kreska pseudotaktowa	!	!	!LO:TX:t=P:problem=kreska pseudotaktowa	!
2C/,	plu-	.	2e\	et
(2.G\	-ant	.	2g\	nu-
.	.	.	2g\	-bes
!LO:TX:t=P:problem=kreska pseudotaktowa	!	!	!	!
4GG/)	.	.	.	.
=11	=11	=11	=11	=11
2C/,	juſ-	.	4g\	plu-
.	.	.	4f\	.
2.c\	-tu(m)	.	4e\	.
!	!	!	!LO:TX:t=P:problem=kreska pseudotaktowa	!
.	.	.	4d\	.
.	.	.	2c\	-ant
4B\	plu-	.	.	.
(4A\	-ant	.	2.e\	Ju-
!LO:TX:t=P:problem=kreska pseudotaktowa	!	!	!	!
4G\,)	.	.	.	.
=12	=12	=12	=12	=12
!LO:TX:t=P:problem=kreska pseudotaktowa	!	!	!	!
1F\	juſ-	.	.	.
.	.	.	8d\L	.
!	!	!	!LO:SIC:o:s:v=c#	!
.	.	.	8c\J	.
!	!	!	!LO:TX:t=P:problem=kreska pseudotaktowa	!
.	.	.	2d\	.
!	!	!	!LO:LB:g=original	!
!LO:TX:t=P:problem=kreska pseudotaktowa	!	!	!	!
1E\	-tu(m)	.	0.e\	-stum
=13	=13	=13	=13	=13
!	!	!	!LO:TX:t=P:problem=kreska pseudotaktowa	!
2r	.	.	.	.
1C/	et	.	.	.
!LO:TX:t=P:problem=kreska pseudotaktowa	!	!	!	!
2E\	nu-	.	.	.
!LO:LB:g=original	!	!	!	!
=14	=14	=14	=14	=14
2C/	-bes	.	2r	.
!LO:TX:t=P:problem=kreska pseudotaktowa	!	!	!	!
2AA/	plu-	.	2c/	et
2E\	-ant	.	2e\	nu-
!LO:TX:t=P:problem=kreska pseudotaktowa	!	!	!LO:TX:t=P:problem=kreska pseudotaktowa	!
2E\	ju-	.	2e\	-bes
=15	=15	=15	=15	=15
2AA/,	-ſtu(m)	.	4e\	plu-
.	.	.	4d\	.
2.A\	plu-	.	4c\	.
.	.	.	4B/	.
.	.	.	2A/	-ant
4G\	-ant	.	.	.
(4F\	.	.	2.c/	Ju-
!LO:TX:t=P:problem=kreska pseudotaktowa	!	!	!	!
4E\)	.	.	.	.
=16	=16	=16	=16	=16
!LO:TX:t=P:problem=kreska pseudotaktowa	!	!	!	!
1D\	juſ-	.	.	.
.	.	.	8B/L	.
.	.	.	8A/J	.
!	!	!	!LO:TX:t=P:problem=kreska pseudotaktowa	!
.	.	.	2B/	.
2C/,	-tu(m)	.	2c/	-stu(m)
!LO:TX:t=P:problem=kreska pseudotaktowa	!	!	!	!
2AA/	a-	.	2e\	a-
=17	=17	=17	=17	=17
4AA/	-pe-	.	4e\	-pe-
4AA/	-ri-	.	4e\	-ri-
!LO:TX:t=P:problem=kreska pseudotaktowa	!	!	!LO:TX:t=P:problem=kreska pseudotaktowa	!
2AA/	-a-	.	2e\	-a-
4AA/	-tur	.	2e\	-tur
4BB/	.	.	.	.
*	*	*	*	*ij
(4C/	a-	.	2e\	a-
!LO:TX:t=P:problem=kreska pseudotaktowa	!	!	!	!
4D/)	.	.	.	.
=18	=18	=18	=18	=18
2F\	-pe-	.	4e\	-pe-
.	.	.	4e\	-ri-
!	!	!	!LO:TX:t=P:problem=kreska pseudotaktowa	!
4A\	-ri-	.	2c\	-a-
!LO:TX:t=P:problem=kreska pseudotaktowa	!	!	!	!
4A\	-a-	.	.	.
2A\	-tur	.	2A/	-tur
*	*	*	*	*Xij
!LO:TX:t=P:problem=kreska pseudotaktowa	!	!	!	!
2G\,	.	.	1e\	ter-
=19	=19	=19	=19	=19
!LO:TX:t=P:problem=kreska pseudotaktowa	!	!	!	!
1F\	Ter-	.	.	.
!	!	!	!LO:TX:t=P:problem=kreska pseudotaktowa	!
.	.	.	2d\	.
!	!	!	!LO:LB:g=original	!
!LO:TX:t=P:problem=kreska pseudotaktowa	!	!	!LO:TX:t=P:problem=kreska pseudotaktowa	!
1E\	-ra	.	1e\	-ra
!LO:LB:g=original	!	!	!	!
=20||	=20	=20	=20	=20
2r	.	.	2r	.
!LO:TX:t=P:problem=kreska pseudotaktowa	!	!	!	!
2A\	et	.	2.c/	et
2.c\	ger-	.	.	.
.	.	.	(4d\	ger-
.	.	.	(4e\)	.
!LO:TX:t=P:problem=kreska pseudotaktowa	!	!	!	!
4c\	-mi-	.	4f\)	-mi-
=21	=21	=21	=21	=21
2c\,	-net	.	2g\	-net
!LO:TX:t=P:problem=kreska pseudotaktowa	!	!	!LO:TX:t=P:problem=kreska pseudotaktowa	!
2B\	et	.	2g\	et
2.A\	ger-	.	2g\	ger-
.	.	.	2f#X\	-mi-
!LO:TX:t=P:problem=kreska pseudotaktowa	!	!	!	!
4A\	-mi-	.	.	.
=22	=22	=22	=22	=22
!LO:TX:t=P:problem=kreska pseudotaktowa	!	!	!	!
1G\	-net	.	2g\	-net
!	!	!	!LO:TX:t=P:problem=kreska pseudotaktowa	!
.	.	.	2d\	et
2r	.	.	2c/	ger-
!LO:TX:t=P:problem=kreska pseudotaktowa	!	!	!	!
2F\	et	.	2A/	-mi-
=23	=23	=23	=23	=23
2.A\	ger-	.	4A/	.
.	.	.	4B/	.
.	.	.	4c/	.
!LO:TX:t=P:problem=kreska pseudotaktowa	!	!	!LO:TX:t=P:problem=kreska pseudotaktowa	!
4A\	-mi-	.	4d\	-net
2A\,	-net	.	2e\	et
!LO:TX:t=P:problem=kreska pseudotaktowa	!	!	!	!
2G\	et	.	2.e\	ger-
=24	=24	=24	=24	=24
2.F\	ger-	.	.	.
.	.	.	8d\L	.
.	.	.	8c\J	.
!	!	!	!LO:TX:t=P:problem=kreska pseudotaktowa	!
.	.	.	2d\	.
4F\	-mi-	.	.	.
!LO:TX:t=P:problem=kreska pseudotaktowa	!	!	!	!
1E\	-net	.	2e\	-mi-
!	!	!	!LO:LB:g=original	!
.	.	.	1e\	-net
=25	=25	=25	=25	=25
2r	.	.	.	.
!LO:TX:t=P:problem=kreska pseudotaktowa	!	!	!LO:TX:t=P:problem=kreska pseudotaktowa	!
2C/	Sal-	.	2e\	Sal-
!	!	!	!LO:TX:a:t=e	!
2AA/	-va-	.	0e\	-va-
!LO:TX:t=P:problem=kreska pseudotaktowa	!	!	!	!
2GG#X/	-to-	.	.	.
=26	=26	=26	=26	=26
!LO:TX:t=P:problem=kreska pseudotaktowa	!	!	!	!
1AA/	.	.	.	-to-
!LO:LB:g=original	!	!	!	!
2E\,	rem	.	1e\	-rem
!LO:TX:t=P:problem=kreska pseudotaktowa	!	!	!	!
2E\	.	.	.	.
=27	=27	=27	=27	=27
2AA/	Sal-	.	2e\	Sal-
2.A\	-va-	.	2e\	-va-
.	.	.	1e\	-to-
8G\L	-to-	.	.	.
8F\J	.	.	.	.
!LO:TX:t=P:problem=kreska pseudotaktowa	!	!	!	!
2G#X\	-rem	.	.	.
=28	=28	=28	=28	=28
!	!	!	!LO:TX:t=P:problem=kreska pseudotaktowa	!
2A\,	.	.	1e\	-r(em)
!LO:TX:t=P:problem=kreska pseudotaktowa	!	!	!	!
2AA/	Sal-	al-	.	.
!LO:TX:t=P:problem=kreska pseudotaktowa	!	!	!	!
1BB/	-va-	-le-	2d#X\	al-
.	.	.	1e\	-le-
=29	=29	=29	=29	=29
!LO:TX:t=P:problem=kreska pseudotaktowa	!	!	!	!
1BB/	-to-	-lu-	.	.
.	.	.	2d#X\	-lu-
!LO:TX:t=P:problem=kreska pseudotaktowa	!	!	!LO:TX:t=P:problem=kreska pseudotaktowa	!
1E\	-rem	-ia	1e\	-ia
=30	=30	=30	=30	=30
2r	.	.	2r	.
!LO:TX:t=P:problem=kreska pseudotaktowa	!	!	!	!
2A\	et	al-	2e\	al-
2G\	ger-	-le-	2g\	-le-
!LO:TX:t=P:problem=kreska pseudotaktowa	!	!	!LO:TX:t=P:problem=kreska pseudotaktowa	!
2F\	.	-lu-	2c/	-lu-
=31	=31	=31	=31	=31
2E\	.	-ia	2e\	-i-
!LO:TX:t=P:problem=kreska pseudotaktowa	!	!	!	!
*	*	*ij	*	*
2D/	.	al-	2A/	-a
!	!	!	!LO:TX:t=P:problem=kreska pseudotaktowa	!
*	*	*	*	*ij
2.E\	.	-le-	1e\	al-
!LO:TX:t=P:problem=kreska pseudotaktowa	!	!	!	!
4E\	-mi-	-lu-	.	.
=32	=32	=32	=32	=32
!LO:TX:t=P:problem=kreska pseudotaktowa	!	!	!	!
1E\	-net	-ia	2e\	-le-
*	*	*Xij	*	*
.	.	.	2e\	-lu-
2r	.	.	2c/	-ia
!LO:TX:t=P:problem=kreska pseudotaktowa	!	!	!LO:TX:t=P:problem=kreska pseudotaktowa	!
2AA/	Sal-	al-	2e\	al-
!LO:LB:g=original	!	!	!LO:LB:g=original	!
=33	=33	=33	=33	=33
2C/	.	-(le)-	2e\	-le-
!LO:TX:t=P:problem=kreska pseudotaktowa	!	!	!	!
2D/	.	.	2f\	-lu-
2E\	.	.	2.e\	-ia
!LO:TX:t=P:problem=kreska pseudotaktowa	!	!	!	!
2C/	-va-	.	.	.
!	!	!	!LO:TX:t=P:problem=kreska pseudotaktowa	!
.	.	.	4f\	al-
=34	=34	=34	=34	=34
1.G\	-to-	-lu-	1.g\	-le-
!LO:TX:t=P:problem=kreska pseudotaktowa	!	!	!LO:TX:t=P:problem=kreska pseudotaktowa	!
2G\	.	-i-	2g\	-lu-
=35	=35	=35	=35	=35
2C/,	-rem	-a	2e\	-ia
*	*ij	*	*	*
1AA/	sal-	al-	1e\	al-
2GG#X/	-va-	-le-	2e\	-le-
=36	=36	=36	=36	=36
!LO:TX:t=P:problem=kreska pseudotaktowa	!	!	!LO:TX:t=P:problem=kreska pseudotaktowa	!
1AA/	-to-	-lu-	1e\	-lu-
0E\;	-rem	-ia.	0e\	-ia
*	*Xij	*	*	*Xij
!LO:LB:g=original	!	!	!	!
=37||	=37||	=37||	=37||	=37||
*M2/1	*	*	*M2/1	*
*met(C|)	*	*	*met(C|)	*
00r	.	.	0r	.
=38	=38	=38	=38	=38
.	.	.	2A/	Be-
.	.	.	4A/	-ne-
!	!	!	!LO:TX:t=P:problem=kreska pseudotaktowa	!
.	.	.	4A/	-di-
.	.	.	2c/	-xi-
.	.	.	2d\	-ſti
=39	=39	=39	=39	=39
!LO:TX:t=P:problem=kreska pseudotaktowa	!	!	!	!
0r	.	.	2.e\	Do-
!	!	!	!LO:TX:t=P:problem=kreska pseudotaktowa	!
.	.	.	4e\	-mi-
!	!	!	!LO:LB;g=original	!
.	.	.	2d\	-ne
.	.	.	2d\	Do-
=40	=40	=40	=40	=40
2AA/	Be-	.	2.c/	-mi-
4AA/	-ne-	.	.	.
!LO:TX:t=P:problem=kreska pseudotaktowa	!	!	!LO:TX:t=P:problem=kreska pseudotaktowa	!
4AA/	-di-	.	4d\	-ne
2C/	-xi-	.	2.e\	.
!LO:TX:t=P:problem=kreska pseudotaktowa	!	!	!	!
2C/	-ſti	.	.	.
.	.	.	4e\	.
=41	=41	=41	=41	=41
2.D\	D(o-	.	2f\	.
!	!	!	!LO:TX:t=P:problem=kreska pseudotaktowa	!
.	.	.	2f\	be-
!LO:TX:t=P:problem=kreska pseudotaktowa	!	!	!	!
4D\	-mi-	.	.	.
!LO:TX:t=P:problem=kreska pseudotaktowa	!	!	!	!
1AA/	-n)e	.	4e\	-ne-
.	.	.	4e\	-di-
.	.	.	2.e\	-xi-
=42	=42	=42	=42	=42
*	*ij	*	*	*
2E\	Be-	.	.	.
.	.	.	4f/	.
4E\	-ne-	.	1g\	-sti
!LO:TX:t=P:problem=kreska pseudotaktowa	!	!	!	!
4E\	-di-	.	.	.
2Gn\	-xi-	.	.	.
!LO:TX:t=P:problem=kreska pseudotaktowa	!	!	!LO:TX:t=P:problem=kreska pseudotaktowa	!
2G\	-ſti	.	2g\	.
=43	=43	=43	=43	=43
2.A\	-Do-	.	2.e\	-Do-
!LO:TX:t=P:problem=kreska pseudotaktowa	!	!	!	!
4A\	-mi-	.	4e\	-mi-
2E\,	-ne	.	2e\	-ne
*	*Xij	*	*	*
!	!	!	!LO:TX:t=P:problem=kreska pseudotaktowa	!
2G\	Ter-	.	2d\	ter-
=44	=44	=44	=44	=44
1F\	-ra(m)	.	4f\	.
.	.	.	4e\	.
.	.	.	1d\	.
!LO:TX:t=P:problem=kreska pseudotaktowa	!	!	!	!
1E\	.	.	.	.
!	!	!	!LO:TX:t=P:problem=kreska pseudotaktowa	!
.	.	.	2c#X/	.
!LO:LB:g=original	!	!	!	!
=45	=45	=45	=45	=45
1D\	tu-	.	1d\	-ram
2C/,	-am	.	1e\	tu-
1AA/	ter-	.	.	.
=46	=46	=46	=46	=46
!	!	!	!LO:TX:t=P:problem=kreska pseudotaktowa	!
.	.	.	2e\	-am
!	!	!	!LO:LB:g=original	!
!LO:TX:t=P:problem=kreska pseudotaktowa	!	!	!	!
2E\	-ram	.	1e\	ter-
(2C/	tu-	.	.	.
!LO:TX:t=P:problem=kreska pseudotaktowa	!	!	!LO:TX:t=P:problem=kreska pseudotaktowa	!
2D/)	.	.	2f\	-ra(m)
=47	=47	=47	=47	=47
2E\,	-am	.	2e\	tu-
!LO:TX:t=P:problem=kreska pseudotaktowa	!	!	!	!
2A\	a-	.	2c/	-am
2G\	-ver-	.	1d\	.
!LO:TX:t=P:problem=kreska pseudotaktowa	!	!	!	!
2F\	-ti-	.	.	.
=48	=48	=48	=48	=48
2E\,	-ſti	.	2r	.
!LO:TX:t=P:problem=kreska pseudotaktowa	!	!	!	!
2D/	a-	.	2f\	a-
2C/	-ver-	.	2e\	-ver-
!LO:TX:t=P:problem=kreska pseudotaktowa	!	!	!LO:TX:t=P:problem=kreska pseudotaktowa	!
2BB/	-tiſ-	.	2d\	-ti-
=49	=49	=49	=49	=49
2AA/,	-ti	.	1c\	-ſti
!LO:TX:t=P:problem=kreska pseudotaktowa	!	!	!	!
2A\	cap-	.	.	.
2.A\	-ti-	.	2r	.
.	.	.	1e\	a-
!LO:TX:t=P:problem=kreska pseudotaktowa	!	!	!	!
4A\	-vi-	.	.	.
=50	=50	=50	=50	=50
2E\	-ta-	.	.	.
!	!	!	!LO:TX:t=P:problem=kreska pseudotaktowa	!
1G\	-tem	.	2d\	.
.	.	.	2B/	-ver-
4F\	.	.	1e\	-ti-
!LO:TX:t=P:problem=kreska pseudotaktowa	!	!	!	!
4E\	.	.	.	.
=51	=51	=51	=51	=51
!LO:TX:t=P:problem=kreska pseudotaktowa	!	!	!	!
!LO:TX:a:t=f.	!	!	!	!
!LO:SIC:o:v=wykreśłoney dźwięk d	!	!	!	!
1F\	Ja-	.	.	.
!	!	!	!LO:TX:t=P:problem=kreska pseudotaktowa	!
.	.	.	2d\	.
!LO:LB:g=original	!	!	!	!
!LO:TX:t=P:problem=kreska pseudotaktowa	!	!	!	!
!LO:TX:a:t=e.	!	!	!	!
!LO:SIC:o:v=wykreśłoney dźwięk c	!	!	!	!
1E\	-cob	.	1e\	-ſti
=52	=52	=52	=52	=52
2r	.	.	2r	.
!LO:SIC:o:v=poprawione dźwięki B	!	!	!LO:TX:t=P:problem=kreska pseudotaktowa	!
2D/	cap-	.	2d\	ca-
2.D/	-ti-	.	2.d\	-pti-
!LO:TX:t=P:problem=kreska pseudotaktowa	!	!	!	!
4D/	-vi-	.	4d\	-vi-
=53	=53	=53	=53	=53
2AA/	-ta-	.	2c\	-ta-
1C/	-tem	.	1e\	-te(m)
4BB/	.	.	4d\	Ja-
!LO:TX:t=P:problem=kreska pseudotaktowa	!	!	!LO:TX:t=P:problem=kreska pseudotaktowa	!
4AA/	.	.	4c\	-cob
!	!	!	!LO:LB:g=original	!
=54	=54	=54	=54	=54
[>2BB/	Ja-	.	1d\	Ja-
!LO:TX:t=P:problem=kreska pseudotaktowa	!	!	!	!
2BB/]	.	.	.	.
2AA/,	-cob	.	2c/	-cob
!LO:TX:t=P:problem=kreska pseudotaktowa	!	!	!LO:TX:t=P:problem=kreska pseudotaktowa	!
2C/	cap-	.	2e\	Ca-
=55	=55	=55	=55	=55
2C/	-ti-	.	2e\	-pti-
!LO:TX:t=P:problem=kreska pseudotaktowa	!	!	!	!
2BB/	-vi-	.	2d\	-vi-
2AA/	-ta-	.	2c/	-ta-
!LO:TX:t=P:problem=kreska pseudotaktowa	!	!	!LO:TX:t=P:problem=kreska pseudotaktowa	!
2GG#X/	-tem	.	2B/	.
=56	=56	=56	=56	=56
!LO:TX:t=P:problem=kreska pseudotaktowa	!	!	!	!
1AA/	Ja-	.	1.A/	-te(m)
0.E\	-cob.	.	.	.
!	!	!	!LO:TX:a:t=P:problem=# below	!
.	.	.	4G#X/	Ja-
!	!	!	!LO:TX:t=P:problem=kreska pseudotaktowa	!
!	!	!	!LO:TX:a:t=P:problem=# below	!
.	.	.	4F#X/	.
!	!	!	!LO:LB:g=original	!
=57	=57	=57	=57	=57
.	.	.	0G#y/	-cob.
!LO:LB:g=original	!	!	!	!
=58||	=58||	=58||	=58||	=58||
00r	.	.	00r	.
=59	=59	=59	=59	=59
=60	=60	=60	=60	=60
4AA/	Glo-	.	0r	.
4BB/	.	.	.	.
4AA/	.	.	.	.
!LO:TX:t=P:problem=kreska pseudotaktowa	!	!	!	!
4BB/	.	.	.	.
4C/	.	.	.	.
4AA/	.	.	.	.
4BB/	.	.	.	.
!LO:TX:t=P:problem=kreska pseudotaktowa	!	!	!	!
4C/	.	.	.	.
=61	=61	=61	=61	=61
2.D/	-ri-	.	4A/	Glo-
.	.	.	4B/	.
.	.	.	4A/	.
!LO:TX:t=P:problem=kreska pseudotaktowa	!	!	!LO:TX:t=P:problem=kreska pseudotaktowa	!
4D/	.	.	4B/	.
2AA/,	-a	.	4c/	.
.	.	.	4A/	.
!LO:TX:t=P:problem=kreska pseudotaktowa	!	!	!	!
2A\	glo-	.	4B/	.
!	!	!	!LO:TX:t=P:problem=kreska pseudotaktowa	!
.	.	.	4c/	.
=62	=62	=62	=62	=62
!LO:SIC:o:v=poprawione dźwięki D	!	!	!	!
2.F/	-ri-	.	2.d\	-ri-
!LO:TX:t=P:problem=kreska pseudotaktowa	!	!	!LO:TX:t=P:problem=kreska pseudotaktowa	!
4F/	-a	.	4d\	-a
!LO:SIC:o:v=poprawiony dźwięk F	!	!	!	!
1A\	Pa-	.	(4A/	.
.	.	.	4B/)	.
.	.	.	4c/	Pa-
.	.	.	4d\	.
=63	=63	=63	=63	=63
!LO:TX:t=P:problem=kreska pseudotaktowa	!	!	!	!
1E\	-tri	.	2e\	-tri
!	!	!	!LO:TX:t=P:problem=kreska pseudotaktowa	!
.	.	.	2e\	.
2AA/	glo-	.	2r	.
2.AA/	-ri-	.	2.e\	glo-
=64	=64	=64	=64	=64
4AA/	.	.	4e\	-ri-
!LO:TX:t=P:problem=kreska pseudotaktowa	!	!	!LO:TX:t=P:problem=kreska pseudotaktowa	!
2AA/	-a	.	2e\	-a
!LO:LB:g=original	!	!	!	!
*	*	*	*	*ij
2.D/	glo-	.	2.f\	glo-
!LO:TX:t=P:problem=kreska pseudotaktowa	!	!	!	!
4D/	-ri-	.	4f\	-ri-
=65	=65	=65	=65	=65
2C/,	-a	.	2e\	-a
*	*	*	*	*Xij
1C/	et	.	(1g\	et
!LO:TX:t=P:problem=kreska pseudotaktowa	!	!	!LO:TX:t=P:problem=kreska pseudotaktowa	!
2D/	Fi-	.	2f\)	.
!	!	!	!LO:PB:g=original	!
=66	=66	=66	=66	=66
2E\	-li-	.	2e\	Fi-
4.F\	.	.	2d\	-li-
!LO:TX:t=P:problem=kreska pseudotaktowa	!	!	!	!
8F\	.	.	.	.
2E\	-o	.	2e\	-o
!LO:SIC:o:v=wykreśłona kreska taktowa	!	!	!	!
1E\	et	.	1e\	et
=67	=67	=67	=67	=67
!LO:TX:t=P:problem=kreska pseudotaktowa	!	!	!LO:TX:t=P:problem=kreska pseudotaktowa	!
2E\	ſpi-	.	2e\	ſpi-
2.AA/	-ri-	.	2.e\	-ri-
4AA/	-tu-	.	4e\	-tu-
=68	=68	=68	=68	=68
!LO:TX:t=P:problem=kreska pseudotaktowa	!	!	!	!
1E\	-i	.	2e\	-i
!	!	!	!LO:TX:t=P:problem=kreska pseudotaktowa	!
.	.	.	2B/	et
0r	.	.	2c/	ſpi-
.	.	.	2d\	.
=69	=69	=69	=69	=69
!LO:TX:t=P:problem=kreska pseudotaktowa	!	!	!	!
.	.	.	2e\	-ri-
!	!	!	!LO:TX:t=P:problem=kreska pseudotaktowa	!
.	.	.	2d\	-tu-
1r	.	.	2e\	-i
.	.	.	(2f\	San-
!LO:TX:b:t=Verte	!	!	!	!
=70	=70	=70	=70	=70
2r	.	.	2d\)	.
!LO:LB:g=original	!	!	!LO:TX:t=P:problem=kreska pseudotaktowa	!
4E\	.	.	2e\	.
!LO:TX:t=P:problem=kreska pseudotaktowa	!	!	!	!
4E\	.	.	.	.
!LO:TX:t=P:problem=kreska pseudotaktowa	!	!	!	!
1A\	e-	.	2e\	-cto
.	.	.	2c/	ſi-
=71	=71	=71	=71	=71
!LO:TX:t=P:problem=kreska pseudotaktowa	!	!	!	!
1G\	-rat	.	2d\	-cut
!	!	!	!LO:TX:t=P:problem=kreska pseudotaktowa	!
.	.	.	2e\	e-
!LO:TX:t=P:problem=kreska pseudotaktowa	!	!	!	!
1F\	in	.	2f\	-rat
.	.	.	2A/	in
!	!	!	!LO:LB:g=original	!
=72	=72	=72	=72	=72
!LO:TX:t=P:problem=kreska pseudotaktowa	!	!	!	!
1E\	prin-	.	2B/	Prin-
.	.	.	2c#X/	-ci-
2.D/	-ci-	.	2d\	-pi-
!	!	!	!LO:TX:t=P:problem=kreska pseudotaktowa	!
.	.	.	2d\	-o
!LO:TX:t=P:problem=kreska pseudotaktowa	!	!	!	!
4D/	-pi-	.	.	.
=73	=73	=73	=73	=73
!LO:TX:t=P:problem=kreska pseudotaktowa	!	!	!	!
1C/,	-o	.	2r	.
.	.	.	(2c/	in
2BB/	in	.	2d\)	.
2AA/	prin-	.	2e\	prin-
=74	=74	=74	=74	=74
2.E\	-ci-	.	2.e\	-ci-
!LO:TX:t=P:problem=kreska pseudotaktowa	!	!	!	!
4E\	-pi-	.	4e\	-pi-
=75	=75	=75	=75	=75
*M3/2	*	*	*M3/2	*
2AA/	-o	.	2e\	-o
2r	.	.	2e\	et
!	!	!	!LO:TX:t=P:problem=kreska pseudotaktowa	!
2r	.	.	2e\	n(unc)
=76	=76	=76	=76	=76
0.r	.	.	1d\	et
!	!	!	!LO:TX:t=P:problem=kreska pseudotaktowa	!
.	.	.	2d\	ſem-
=77	=77	=77	=77	=77
!	!	!	!LO:TX:t=P:problem=kreska pseudotaktowa	!
.	.	.	1.c\	-p(er)
=78	=78	=78	=78	=78
2r	.	.	2B/	et
2F\	et	.	2c/	in
!LO:TX:t=P:problem=kreska pseudotaktowa	!	!	!LO:TX:t=P:problem=kreska pseudotaktowa	!
2F\	in	.	2c/	.
=79	=79	=79	=79	=79
2.C/	ſae-	.	2.c/	ſae-
4C/	-cu-	.	4c/	-cu-
!LO:TX:t=P:problem=kreska pseudotaktowa	!	!	!LO:TX:t=P:problem=kreska pseudotaktowa	!
2C/	-la	.	2c/	-la
!LO:LB:g=original	!	!	!LO:LB:g=original	!
=80	=80	=80	=80	=80
2D/	ſae-	.	2A/	ſae-
2D/	-cu-	.	2A/	-cu-
!LO:TX:t=P:problem=kreska pseudotaktowa	!	!	!LO:TX:t=P:problem=kreska pseudotaktowa	!
2D/	-lo-	.	2A/	-lo-
=81	=81	=81	=81	=81
2AA/,	-ru(m)	.	2A/	-r(um)
2C/	ſae-	.	2G/	.
!LO:TX:t=P:problem=kreska pseudotaktowa	!	!	!LO:TX:t=P:problem=kreska pseudotaktowa	!
2C/	-cu-	.	2G/	a-
=82	=82	=82	=82	=82
(1AA/	-lo-	.	1A/	.
!LO:TX:t=P:problem=kreska pseudotaktowa	!	!	!LO:TX:t=P:problem=kreska pseudotaktowa	!
2GG/)	.	.	2B/	-men
=83	=83	=83	=83	=83
!LO:TX:t=P:problem=kreska pseudotaktowa	!	!	!LO:TX:t=P:problem=kreska pseudotaktowa	!
1.AA/	-ru(m)	.	1.c\	a-
=84	=84	=84	=84	=84
2AA/,	ſae-	.	2B/	-men
2C/	-cu-	.	2c/	ſae-
!LO:TX:t=P:problem=kreska pseudotaktowa	!	!	!LO:TX:t=P:problem=kreska pseudotaktowa	!
2C/	-lo-	.	2c/	-cu-
=85	=85	=85	=85	=85
1AA/	-ru(m)	.	1c\	-lo-
!LO:TX:t=P:problem=kreska pseudotaktowa	!	!	!	!
2GG#X/	.	.	2B/	-ru(m)
=86	=86	=86	=86	=86
!LO:TX:t=P:problem=kreska pseudotaktowa	!	!	!LO:TX:t=P:problem=kreska pseudotaktowa	!
1.AA/	a-	.	1.A/	a-
=87	=87	=87	=87	=87
!LO:TX:t=P:problem=brevis z kropką	!	!	!LO:TX:b:t=Rorate Da Capo	!
0.E\	-men.	.	0.G/	-men.
==	==	==	==	==
*-	*-	*-	*-	*-
!!!system-decoration: [(s1,s2)]
!!!RDF**kern: > = above
!!!RDF**kern: < = below
!!!EED: Leszek Kubiak
!!!EEV: 2021-03-03
!!!ENC: Tomasz Grochalski
!!!END: 2021-02-17
